X: 10672
T: Down The Broom
R: reel
M: 4/4
K: Adorian
|:EAAG A2 (3Bcd|(3ege dg edBA|GE E2 G2 AB|(3cBA (3BAG AGED|
EAAG A2 (3Bcd|egfa gedB|BA (3Bcd egfa|1 gedB BAAG:|2 gedB BA A2||
|:ea a2 (3bag bg|agbg agef|g2 bg g2 bg|g2 ba geed|
ea a2 (3bag ea|a2 ba aged|BA (3Bcd egfa|(3gfe dB BA A2:|

